X: 1347
T: An Phis Thirim
R: slip jig
M: 9/8
K: Eminor
|:"Em"GFE EB,E GFE|"Bm"F2D-D2F GFE|"Em"B,2E-E2F GFE|"G"B3 BAG "D"AGF:|
M:9/8|:"Em"EGB edc BAB|"Am"c2A-A2c- cBA|"Em"GFE EFG FED|

